storage/app/icons/phosphoricons/thin/suitcase-rolling-thin.svg

<svg xmlns="http://www.w3.org/2000/svg" fill="currentColor" viewBox="0 0 256 256"><path d="M100 88v96a4 4 0 0 1-8 0V88a4 4 0 0 1 8 0m28-4a4 4 0 0 0-4 4v96a4 4 0 0 0 8 0V88a4 4 0 0 0-4-4m32 0a4 4 0 0 0-4 4v96a4 4 0 0 0 8 0V88a4 4 0 0 0-4-4m44-20v144a12 12 0 0 1-12 12h-20v20a4 4 0 0 1-8 0v-20H92v20a4 4 0 0 1-8 0v-20H64a12 12 0 0 1-12-12V64a12 12 0 0 1 12-12h28V24a20 20 0 0 1 20-20h32a20 20 0 0 1 20 20v28h28a12 12 0 0 1 12 12M100 52h56V24a12 12 0 0 0-12-12h-32a12 12 0 0 0-12 12Zm96 12a4 4 0 0 0-4-4H64a4 4 0 0 0-4 4v144a4 4 0 0 0 4 4h128a4 4 0 0 0 4-4Z"/></svg>

<svg xmlns="http://www.w3.org/2000/svg" viewBox="0 0 256 256" fill="currentColor"><path d="M100,88v96a4,4,0,0,1-8,0V88a4,4,0,0,1,8,0Zm28-4a4,4,0,0,0-4,4v96a4,4,0,0,0,8,0V88A4,4,0,0,0,128,84Zm32,0a4,4,0,0,0-4,4v96a4,4,0,0,0,8,0V88A4,4,0,0,0,160,84Zm44-20V208a12,12,0,0,1-12,12H172v20a4,4,0,0,1-8,0V220H92v20a4,4,0,0,1-8,0V220H64a12,12,0,0,1-12-12V64A12,12,0,0,1,64,52H92V24A20,20,0,0,1,112,4h32a20,20,0,0,1,20,20V52h28A12,12,0,0,1,204,64ZM100,52h56V24a12,12,0,0,0-12-12H112a12,12,0,0,0-12,12Zm96,12a4,4,0,0,0-4-4H64a4,4,0,0,0-4,4V208a4,4,0,0,0,4,4H192a4,4,0,0,0,4-4Z"/></svg>
